X:1
T:Title
%%score { ( 1 4 ) | ( 2 3 ) }
L:1/8
M:6/8
K:Bb
V:1 treble nm="Grand Piano"
V:4 treble 
V:2 bass 
V:3 bass 
V:1
 z3 z2[Q:1/4=100] [DF] | [DF]2 [DF] FGA | [DB]2 [DF] [DF]2 [DB] | c2 =B c2 _d | [Fd]3- [Fd]2 [Fd] | %5
 [Ge]2 [Fd] [Ec]2 [DB] | [Gc]2 [GB] [FA]2 G | F2 B Bc[=Ed] | [Fc]3- [Fc]2 [EF] | [DF]2 [DF] FGA | %10
 [DB]2 [DF] [DF]2 [DB] | c2 =B c2 _d | [Fd]3- [Fd]2 [Fd] | [_Af]2 [Ad] [Ac]2 [AB] | %14
 [Gc]2 [GB] BAG | F2 B c2 A |[M:5/8] [DB]-[DB]- [DB]2- [DB]/ z/ |[M:4/4] F<d .B2 z/ D3/2 D<D- | %18
 D<G- G<D- D<D D<.D | z2 z/ F3/2- F4- | F2 z/ A3/2- A4 | A<e .c2 z/ E3/2 E<E- | %22
 E<A- A<D- D<D D<.D | z2 z/ c3/2- c4 | B<G .A2 z/ C3/2 D<.E | F<d .B2 z/ D3/2 D<D- | %26
 D<G- G<D- D<D D<D | [DF]<[DB] [Ec]<d- d-<[Fd-] [Fd-]<[Fd]- | %28
 [Fd]<[_Af]- [Af]<e- e-<[Ge-] [Ge-]<[Ge] | [GB]<[GB] [Gc]<d- d-<[Fd-] [Fd-]<[Fd]- | %30
 [Fd]<[_Af]- [Af]/ z/ z z/ E3/2 E<E | [Ge]<[Gd] [Gc]<[FB]- [FB]2- [FB]<[EA]- | %32
[M:7/8] [EA]2- [EA]/[DB]/- [DB]- [DB]3- | [DB]2 z z z z2 |] %34
V:2
 z3 z2 [B,,B,] | z3 .A,3 | [B,,B,]2 [B,,B,] [B,,B,]2 [B,,B,] | %3
 [F,A,F]2 [F,_A,F] [F,=A,F]2 [F,A,F] | [B,,B,]3- [B,,B,]2 [B,,B,] | %5
 [B,,B,]2 [B,,B,] [B,,B,]2 [B,,B,] | [E,B,]2 [E,B,] [E,B,]2 [E,B,E] | %7
 [F,B,D]2 [G,B,D] C,-[C,A,][C,B,] | [F,A,]3- [F,A,]2 [F,A,] | z3 .A,3 | %10
 [B,,B,]2 [B,,B,] [B,,B,]2 [B,,B,] | [F,A,F]2 [F,_A,F] [F,=A,F]2 [F,A,F] | %12
 [B,,B,]3- [B,,B,]2 [B,,B,] | [B,,B,]2 [B,,B,] [C,B,]2 [D,B,] | [E,B,]2 [E,B,] G,A,[E,B,_D] | %15
 [F,B,D]2 [F,B,D] [F,A,E]2 [F,CE] |[M:5/8] [B,,B,]-[B,,B,]- [B,,B,]2- [B,,B,]/ z/ | %17
[M:4/4] z4 z/ [B,,B,]3/2 [B,,B,]<[B,,B,]- | %18
 [B,,B,]<[E,B,E]- [E,B,E]<[B,,B,]- [B,,B,]<[B,,B,] [B,,B,]<.[B,,B,] | %19
 z4 z/ [B,,B,]3/2 [B,,B,]<[B,,B,]- | %20
 [B,,B,]<[B,,F,]- [B,,F,]<[C,F,]- [C,F,]<[C,F,] [C,F,]<.[C,F,] | z4 z/ [F,C]3/2 [F,C]<[F,C]- | %22
 [F,C]<[F,CE]- [F,CE]<[B,,B,]- [B,,B,]<[B,,B,] [B,,B,]<.[B,,B,] | z4 z/ [C,A,]3/2 [C,A,]<.[C,G,] | %24
 z4 z/ [F,A,]3/2 [F,B,]<.[F,C] | z4 z/ [B,,B,]3/2 [B,,B,]<[B,,B,]- | %26
 [B,,B,]<[E,B,E]- [E,B,E]<[B,,B,]- [B,,B,]<[B,,B,] [B,,B,]<[B,,B,] | %27
 [B,,B,]<[B,,B,] [B,,B,]<[B,,B,]- [B,,B,]<[B,,B,] [B,,B,]<[B,,B,]- | %28
 [B,,B,]<[D,B,]- [D,B,]<[E,B,]- [E,B,]<[E,B,] [E,B,]<[E,B,] | %29
 [E,B,]<[E,B,] [E,B,]<[B,,B,]- [B,,B,]<[B,,B,] [B,,B,]<[B,,B,]- | %30
 [B,,B,]<[D,B,]- [D,B,]<[E,B,E]- [E,B,E]<[E,B,] [E,B,]<[E,B,] | %31
 [C,C]<[D,=B,] [E,C]<[F,D]- [F,D]2- [F,D]<[F,C]- | %32
[M:7/8] [F,C]2- [F,C]/[B,,B,]/- [B,,B,]- [B,,B,]3- | [B,,B,]2 z z z z2 |] %34
V:3
 x6 | [B,,B,]2 [B,,B,] F,-[F,B,E][F,CE] | x6 | x6 | x6 | x6 | x6 | z3 .G,3 | x6 | %9
 [B,,B,]2 [B,,B,] [F,E]-[F,B,E][F,CE] | x6 | x6 | x6 | x6 | z3 .[E,_D]3 | x6 |[M:5/8] x5 | %17
[M:4/4] x8 | x8 | x8 | x8 | x8 | x8 | x8 | x8 | x8 | x8 | x8 | x8 | x8 | x8 | x8 |[M:7/8] x7 | %33
 x7 |] %34
V:4
 x6 | x6 | x6 | x6 | x6 | x6 | x6 | z3 .=E3 | x6 | x6 | x6 | x6 | x6 | x6 | x6 | x6 |[M:5/8] x5 | %17
[M:4/4] z2 z/ F3/2- F4- | F2 z/ F3/2- F4 | F<d .B2 z/ D3/2 D<D- | D<[DB]- [DB]<E- E<E E<.E | %21
 z2 z/ G3/2- G4- | G2 z/ F3/2- F4 | F<B .d2 z/ F3/2 F<.=E | z2 z/ F3/2- F4 | z2 z/ F3/2- F4- | %26
 F2 z/ F3/2- F4 | z2 z/ F3/2- F/ z/ z z2 | z2 z/ G3/2- G/ z/ z z2 | z2 z/ F3/2- F/ z/ z z2 | %30
 z2 z/ G3/2- G4 | x8 |[M:7/8] x7 | x7 |] %34

